X:1
T:Misa Sa sirised, sirtsukene?
T:Mis Sa sirised, sirtsukene?
T:Cyrillus Kreek
T:Rahvaluule
C:Cyrillus Kreek
%%score [ 1 2 3 4 ]
L:1/8
Q:1/4=125
M:3/8
K:G
V:1 treble nm="Soprano" snm="S"
V:2 treble nm="Alto" snm="A"
V:3 treble-8 nm="Tenor" snm="T"
V:4 bass nm="Bass" snm="B"
V:1
"^Allegro molto\n"!mf! E/E/A/A/A |[M:4/8] GFEE |[M:6/8]!p! E E2 E E2 |[M:4/8] EEEE | %4
w: Mis Sa si- ri- sed,|sirt- su- ke- ne,|mis Sa lei- nad|le- pa- lin- du?|
[M:3/8]!mf! E E2 |[M:4/8] EFGG |[M:6/8]!p! E E2 E E2 |[M:4/8] EEEE |[M:3/8]!f! B/B/ee | %9
w: Har- ras|hää- le- ke- ne,|miks Sul kur- ba|kee- le- ke- ne?|Eks veel le- pad|
[M:4/8] deBB |[M:6/8] B(AF) B(AF) |[M:4/8]!>(! GFEE-!>)! |[M:3/8]!p! E3- |[M:4/8] E4 | %14
w: leh- te- del- la,|eks veel _ ka- sed _|kat- te'- el- la!|_||
[M:6/8]!mf! A(GE) A(GE) |[M:4/8] =FGAA |[M:3/8] z3 |[M:4/8] z4 |[M:3/8] z3 |[M:4/8] z4 | %20
w: Sirt- su _ kuu- lis, _|sirt- su kos- tis:|||||
[M:3/8] z3 |[M:4/8] z4 |[M:3/8] z3 |[M:4/8] z4 |[M:6/8] z6 |[M:4/8] z4 |[M:3/8] z3 | z3 | z3 | z3 | %30
w: ||||||||||
!mf! E/E/A/A/A |[M:4/8] GFEE |[M:6/8]!p! E E2 E E2 |[M:4/8] EEEE |[M:3/8]!mf! E E2 |[M:4/8] EAEE | %36
w: Mis Sa si- ri- sed,|sirt- su- ke- ne,|mis Sa lei- nad|le- pa- lin- du?|Har- ras|hää- le- ke- ne|
[M:6/8]!p! E E2 E E2 |[M:4/8] EEEE |[M:3/8]!mf! E/E/AA |[M:4/8] GFEE |[M:6/8]!p! E(DB,) E(DB,) | %41
w: miks Sul kur- ba|kee- le- ke- ne?|Eks veel le- pad|leh- te- del- la,|eks veel _ ka- sed _|
[M:4/8] CDEE- |[M:3/8] E3- |[M:4/8] E4 |[M:6/8] A(GE) A(GE) | =F G2 A A2 |[M:3/8]!f! A/A/dd | %47
w: kat- te'- el- la.|_||Sirt- su _ kuu- lis, _|sirt- su kos- tis:|Ku- red too- vad|
[M:4/8] cBAA |[M:3/8] A3 |[M:4/8] A4 |[M:3/8] A3 |[M:4/8] A4 |[M:3/8] A3 |[M:4/8] A4 |[M:6/8] A6 | %55
w: kur- ja il- ma,|ku-|red|too-|vad|kur-|ja|il-|
[M:4/8] A4 |[M:3/8] z!mf! AG | BAF | EEE |"^rit." z3 | z3 | z3 |] %62
w: ma,|kül- ma|koi- du- la|kal- la- vad.||||
V:2
!mf! E/E/E/E/F |[M:4/8] DDEB, |[M:6/8]!p! E(DB,) E(DB,) |[M:4/8] CDEE |[M:3/8]!mf! E D2 | %5
w: Mis Sa si- ri- sed,|sirt- su- ke- ne,|mis Sa _ lei- nad _|le- pa- lin- du?|Har- ras|
[M:4/8] CCCB, |[M:6/8]!p! E(DB,) E(DB,) |[M:4/8] CDEE- |[M:3/8]!f! E3 |[M:4/8] E2 E2 | %10
w: hää- le- ke- ne,|miks Sul _ kur- ba _|kee- le- ke- ne?|_|Eks veel|
[M:6/8] D3 C3 |[M:4/8]!>(! B,DDC!>)! |[M:3/8]!p! A,/A,/DD |[M:4/8] CB,A,A, |[M:6/8]!p! A,6 | %15
w: ka- sed|kat- te'- el- la?|Sirt- su kuu- lis,|sirt- su kos- tis,|sirt-|
[M:4/8] A,4 |[M:3/8] A,3 |[M:4/8] A,4 |[M:3/8] z3 |[M:4/8] z4 |[M:3/8] z3 |[M:4/8] z4 |[M:3/8] z3 | %23
w: su|kos-|tis.||||||
[M:4/8] z4 |[M:6/8] z6 |[M:4/8] z4 |[M:3/8] z3 | z3 | z3 | z3 |!mf! E/E/E/E/F |[M:4/8] DDEB, | %32
w: |||||||Mis Sa si- ri- sed,|sirt- su- ke- ne,|
[M:6/8]!p! E(DB,) E(DB,) |[M:4/8] CDEE |[M:3/8]!mf! E D2 |[M:4/8] CCCB, |[M:6/8]!p! E E2 E E2 | %37
w: mis Sa _ lei- nad _|le- pa- lin- du?|Har- ras|hää- le- ke- ne|miks Sul kur- ba|
[M:4/8] CDB,B, |[M:3/8]!mf! C/C/DD |[M:4/8] EDB,B, |[M:6/8]!p! B, B,2 B, B,2 |[M:4/8] CCCB, | %42
w: kee- le- ke- ne?|Eks veel le- pad|leh- te- del- la,|eks veel ka- sed|kat- te'- el- la.|
[M:3/8] A,/A,/DD |[M:4/8] CB,A,A, |[M:6/8] A,6 | A,6 |[M:3/8] A,3 |[M:4/8] A,4 |[M:3/8] D/D/GG | %49
w: Sirt- su kuu- lis,|sirt- su kos- tis,|sirt-|su|kos-|tis:|vi- lu il- ma,|
[M:4/8] =FEDD- |[M:3/8] D3- |[M:4/8] D4 |[M:3/8] D3 |[M:4/8] D4 |[M:6/8]!p! E(DB,) E(DB,) | %55
w: vin- get tuul- ta,|_||too-|vad,|ha- ned _ too- vad _|
[M:4/8] CDEE |[M:3/8] z3 | z3 | z!p! DC | EDB, | A,A,A, | z3 |] %62
w: hal- la- tus- ta,|||kül- ma|koi- du- la|kal- la- vad.||
V:3
!mf! e/d/c/A/d |[M:4/8] BdcG |[M:6/8]!p! c(BG) c(BG) |[M:4/8] AFEE |[M:3/8]!mf! E/E/AA | %5
w: Mis Sa si- ri- sed,|sirt- su- ke- ne,|mis Sa _ lei- nad _|le- pa- lin- du?|Miks Sul har- ras|
[M:4/8] GFEE |[M:6/8]!p! E E2 E E2 |[M:4/8] EEEE |[M:3/8]!f! B3 |[M:4/8] A2 B2 |[M:6/8] A3 G3 | %11
w: hää- le- ke- ne,|miks Sul kur- ba|kee- le- ke- ne?|Eks,|eks veel|ka- sed|
[M:4/8]!>(! GAAA!>)! |[M:3/8] z3 |[M:4/8] z4 |[M:6/8] z6 |[M:4/8] z4 |[M:3/8]!f! A/A/dd | %17
w: kat- te'- el- la?|||||Ku- red too- vad|
[M:4/8] cBAA- |[M:3/8] A3- |[M:4/8] A4 |[M:3/8]!p! E/E/AA |[M:4/8] GFEE- |[M:3/8] E3- |[M:4/8] E4 | %24
w: kur- ja il- ma,|_||ku- red too- vad|kur- ja il- ma,|_||
[M:6/8] A(GE) A(GE) |[M:4/8] =FGAA |[M:3/8] z!mf! AG | BAF | EEE | z3 | e/d/c/A/d |[M:4/8] BdcG | %32
w: ha- ned _ too- vad _|hal- la- tus- ta,|kül- ma|koi- du- la|kal- la- vad.||Mis Sa si- ri- sed,|sirt- su- ke- ne,|
[M:6/8]!p! c(BG) c(BG) |[M:4/8] AFEE |[M:3/8]!mf! E/E/AA |[M:4/8] GFGG |[M:6/8]!p! A(GE) A(GE) | %37
w: mis Sa _ lei- nad _|le- pa- lin- du?|Miks Sul har- ras|hää- le- ke- ne|miks Sul _ kur- ba _|
[M:4/8] FABG |[M:3/8]!mf! A/A/AA |[M:4/8] AAAG |[M:6/8]!p! E(F/G/F) G(F/G/F) |[M:4/8] GFGG | %42
w: kee- le- ke- ne?|Eks veel le- pad|leh- te- del- la,|eks veel _ _ ka- sed _ _|kat- te'- el- la.|
[M:3/8] z3 |[M:4/8] z4 |[M:6/8] z6 |!mf! A(GE) A(GE) |[M:3/8] =F G2 |[M:4/8] A A3 |[M:3/8] z3 | %49
w: |||Sirt- su _ kuu- lis, _|sirt- su|kos- tis:||
[M:4/8] z4 |[M:3/8]!p! E/E/AA |[M:4/8] GFEE |[M:3/8] E3 |[M:4/8] E4 |[M:6/8]!p! E F2 G F2 | %55
w: |Ku- red too- vad|kur- ja il- ma,|too-|vad,|ha- ned too- vad|
[M:4/8] EEEE |[M:3/8] z3 | z3 | z!p! EE | EEE | EEE | z3 |] %62
w: hal- la- tus- ta,|||kül- ma|koi- du- la|kal- la- vad.||
V:4
 z3 |[M:4/8] z4 |[M:6/8] z6 |[M:4/8] z4 |[M:3/8]!mf! C,/C,/B,,B,, |[M:4/8] C,D,E,E, | %6
w: ||||Miks Sul har- ras|hää- le- ke- ne,|
[M:6/8]!p! C,(B,,G,,) C,(B,,G,,) |[M:4/8] A,,F,,E,,E,, |[M:3/8]!f! E,3 |[M:4/8] F,2 G,2 | %10
w: miks Sul _ kur- ba _|kee- le- ke- ne?|Eks,|eks veel|
[M:6/8] F,3 E,3 |[M:4/8]!>(! E,D,A,A,!>)! |[M:3/8] z3 |[M:4/8] z4 |[M:6/8] z6 |[M:4/8] z4 | %16
w: ka- sed|kat- te'- el- la?|||||
[M:3/8] z3 |[M:4/8] z4 |[M:3/8]!mf! D,/D,/G,G, |[M:4/8] =F,E,D,D,- |[M:3/8] D,3- |[M:4/8] D,4 | %22
w: ||vi- lu il- ma|vin- get tuul- ta,|_||
[M:3/8]!pp! A,,/A,,/D,D, |[M:4/8] C,B,,A,,A,,- |[M:6/8] A,,6- |[M:4/8] A,,4 |[M:3/8] z3 | z3 | %28
w: ha- ned too- vad|hal- la- tus- ta,|_||||
 z!mf! D,C, | E,D,B,, | A,,A,,A,, |[M:4/8] z4 |[M:6/8]!p! E, E,2 E, E,2 |[M:4/8] E,E,E,E, | %34
w: kül- ma|koi- du- la|kal- la- vad.||mis Sa lei- nad|le- pa- lin- du?|
[M:3/8]!mf! C,/C,/B,,B,, |[M:4/8] C,D,E,E, |[M:6/8]!p! C,(B,,G,,) C,(B,,G,,) | %37
w: Miks Sul har- ras|hää- le- ke- ne|miks Sul _ kur- ba _|
[M:4/8] A,,F,,G,,E,, |[M:3/8]!mf! A,,/A,,/B,,B,, |[M:4/8] C,D,E,E, |[M:6/8]!p! G,, B,,2 E, B,,2 | %41
w: kee- le- ke- ne?|Eks veel le- pad|leh- te- del- la,|eks veel ka- sed|
[M:4/8] A,,A,,[E,,E,][E,,E,] |[M:3/8] z2 A,,/A,,/ |[M:4/8] D,D,C,B,, |[M:6/8] A,,A,, z z2 z | z6 | %46
w: kat- te'- el- la.|Sirt- su|kuu- lis, sirt- su|kos- tis:||
[M:3/8] z3 |[M:4/8] z4 |[M:3/8] z3 |[M:4/8] z4 |[M:3/8] z3 |[M:4/8] z4 |[M:3/8]!pp! A,,/A,,/D,D, | %53
w: ||||||ha- ned too- vad|
[M:4/8] C,B,,A,,A,,- |[M:6/8] A,,6- |[M:4/8] A,,4 |[M:3/8] z3 | z3 | z!p! D,C, | E,D,B,, | %60
w: hal- la- tus- ta,|_||||kül- ma|koi- du- la|
 A,,A,,A,, |"_1928-02-07" z3 |] %62
w: kal- la- vad.||

